packages/eui/src/components/icon/svgs/pencil.svg

<svg width="16" height="16" viewBox="0 0 16 16" fill="none" xmlns="http://www.w3.org/2000/svg">
<path fill-rule="evenodd" clip-rule="evenodd" d="M13.707 4.99991C13.8946 4.81237 13.9999 4.55801 13.9999 4.29278C13.9999 4.02756 13.8946 3.7732 13.707 3.58567L11.414 1.29287C11.0235 0.902367 10.3904 0.90238 9.99985 1.29289L8.49992 2.79282L8.48738 2.80559L2 9.29297V13.0001H5.70711L13.707 4.99991ZM11.4999 5.79282L9.20703 3.49992L10.707 2L12.9999 4.2928L11.4999 5.79282ZM8.5 4.20718L3 9.70718V12.0001H5.29289L10.7929 6.50007L8.5 4.20718Z" fill="#1D2A3E"/>
<path d="M2 15H9V14H2V15Z" fill="#1D2A3E"/>
<path d="M12 15H10V14H12V15Z" fill="#1D2A3E"/>
<path d="M13 15H14V14H13V15Z" fill="#1D2A3E"/>
</svg>

<svg xmlns="http://www.w3.org/2000/svg" width="16" height="16" viewBox="0 0 16 16">
  <path fill-rule="evenodd" d="M13.707 5a1 1 0 0 0 0-1.414l-2.293-2.293a1 1 0 0 0-1.414 0l-1.5 1.5-.013.013L2 9.293V13h3.707l8-8Zm-2.207.793L9.207 3.5l1.5-1.5L13 4.293l-1.5 1.5Zm-3-1.586L3 9.707V12h2.293l5.5-5.5L8.5 4.207Z" clip-rule="evenodd"/>
  <path d="M2 15h7v-1H2v1Zm10 0h-2v-1h2v1Zm1 0h1v-1h-1v1Z"/>
</svg>
